X: 43636
T: Zelda
R: jig
M: 6/8
K: Aminor
|:e2 a e2 c|def e2 e|edc B2 B|Bcd c2 A|
e2 a e2 c|def e2 e|edc B2 B|BcB A3:|
ABc E2 E|ABc F2 F|ABc B2 B|dcB c2 A|
ABc E2 E|ABc F2 F|ABc B2 B|dcB A3|
ABc e2 e|ABc f2 f|edc B2 B|Bcd c2 A|
ABc e2 e|ABc f2 f|edc B2 B|BcB A3|

